ion/logo-stackoverflow.svg

<svg viewBox="0 0 512 512" xmlns="http://www.w3.org/2000/svg"><g><path d="M392 440V320h40v160H64V320h40v120Z"/><path d="M149.1 308.77l198.57 40.87 8.4-39.32 -198.57-40.87Zm26.27-93.12L359.22 300 376 263.76l-183.82-84.84Zm50.95-89l156 127.78 25.74-30.52 -156-127.78ZM328 32l-33.39 23.8 120.82 160.37L448 192ZM144 400h204v-40H144Z"/></g></svg>

<svg xmlns="http://www.w3.org/2000/svg" width="512" height="512" viewBox="0 0 512 512"><path d="M392,440V320h40V480H64V320h40V440Z"/><path d="M149.1,308.77l198.57,40.87,8.4-39.32L157.5,269.45Zm26.27-93.12L359.22,300,376,263.76,192.18,178.92Zm50.95-89,156,127.78,25.74-30.52-156-127.78ZM328,32,294.61,55.8,415.43,216.17,448,192ZM144,400H348V360H144Z"/></svg>
